dist/assets/img/pay/cash.svg

<svg width="50" height="50" viewBox="0 0 50 50" fill="none" xmlns="http://www.w3.org/2000/svg">
<path fill-rule="evenodd" clip-rule="evenodd" d="M0 0H45.2381V34.4814H0V0Z" fill="#00856E"/>
<path fill-rule="evenodd" clip-rule="evenodd" d="M4.76172 6.8963H49.9998V41.3777H4.76172V6.8963Z" fill="#21D05B"/>
<path fill-rule="evenodd" clip-rule="evenodd" d="M43.9004 36.0032L43.9004 41.7578C43.9004 43.5294 40.6054 44.9656 36.5409 44.9656C32.4764 44.9656 29.1815 43.5294 29.1815 41.7578V23.3574H43.9004V41.7475L43.9004 36.0032Z" fill="#FF9300"/>
<path fill-rule="evenodd" clip-rule="evenodd" d="M29.1815 22.9903C29.1815 24.7619 32.4764 26.1981 36.5409 26.1981C40.6054 26.1981 43.9004 24.7619 43.9004 22.9903C43.9004 21.2188 40.6054 19.7826 36.5409 19.7826C32.4764 19.7826 29.1815 21.2188 29.1815 22.9903Z" fill="#FFD900"/>
<path fill-rule="evenodd" clip-rule="evenodd" d="M33.3339 46.8522L33.334 46.8623C33.334 48.5951 30.136 49.9998 26.1911 49.9998C22.2462 49.9998 19.0483 48.5951 19.0483 46.8623L19.0483 46.8522L19.0483 34.4832H33.334V46.8522H33.3339Z" fill="#FF9300"/>
<path fill-rule="evenodd" clip-rule="evenodd" d="M19.0483 34.4833C19.0483 35.9115 22.2462 37.0694 26.1911 37.0694C30.136 37.0694 33.334 35.9115 33.334 34.4833C33.334 33.055 30.136 31.8972 26.1911 31.8972C22.2462 31.8972 19.0483 33.055 19.0483 34.4833Z" fill="#FFD900"/>
</svg>

<svg width="50" height="50" fill="none" xmlns="http://www.w3.org/2000/svg"><path fill-rule="evenodd" clip-rule="evenodd" d="M0 0h45.238v34.481H0V0z" fill="#00856E"/><path fill-rule="evenodd" clip-rule="evenodd" d="M4.762 6.896H50v34.482H4.762V6.896z" fill="#21D05B"/><path fill-rule="evenodd" clip-rule="evenodd" d="M43.9 36.003v5.755c0 1.771-3.295 3.208-7.36 3.208-4.064 0-7.358-1.437-7.358-3.208v-18.4H43.9v18.39-5.745z" fill="#FF9300"/><path fill-rule="evenodd" clip-rule="evenodd" d="M29.181 22.99c0 1.772 3.295 3.208 7.36 3.208 4.064 0 7.36-1.436 7.36-3.208 0-1.771-3.296-3.207-7.36-3.207-4.065 0-7.36 1.436-7.36 3.207z" fill="#FFD900"/><path fill-rule="evenodd" clip-rule="evenodd" d="M33.334 46.852v.01c0 1.733-3.198 3.138-7.143 3.138s-7.143-1.405-7.143-3.138V34.483h14.286v12.37z" fill="#FF9300"/><path fill-rule="evenodd" clip-rule="evenodd" d="M19.048 34.483c0 1.428 3.198 2.586 7.143 2.586s7.143-1.158 7.143-2.586-3.198-2.586-7.143-2.586-7.143 1.158-7.143 2.586z" fill="#FFD900"/></svg>
